X:180
T:When Sick is it Tea You Want?
T:Go to the Devil and Shake Yourself
R:jig
Z:id:hn-jig-180
M:6/8
K:D
Add dcB|ABA AFG|Add cde|fdf ecA|Add dcB|ABA AFG|Add cde|1 fdd d2B:|2 fdd dfg||
afd dcd|BGG Gga|bge ede|cAA AFG|Add dcB|ABA AFG|Add cde|1 fdd dfg:|2 fdd d2B||

